icons/clinical_a.svg

<svg width="48" height="48" viewBox="0 0 48 48" fill="none" xmlns="http://www.w3.org/2000/svg">
<path fill-rule="evenodd" clip-rule="evenodd" d="M19 4C18.4477 4 18 4.44772 18 5V9C18 9.55228 18.4477 10 19 10H20V11.2729C19.4174 11.4788 19 12.0344 19 12.6875V39C19 41.7614 21.2386 44 24 44C26.7614 44 29 41.7614 29 39V12.6875C29 12.0344 28.5826 11.4788 28 11.2729V10H29C29.5523 10 30 9.55228 30 9V5C30 4.44772 29.5523 4 29 4H19ZM21 13.1021C21.5826 12.8962 22 12.3406 22 11.6875V10H26V11.6875C26 12.3406 26.4174 12.8962 27 13.1021V18H21V13.1021ZM27 24.9853L22.0153 20H21V21.1569L27 27.1569V24.9853ZM24.8436 20L27 22.1567V20.9853L26.0147 20H24.8436ZM27 29.9854L21 23.9854V26.1569L27 32.1569V29.9854ZM27 37.1569L21 31.1569V28.9854L27 34.9854V37.1569ZM26.8748 39.8602L21 33.9854V36.1568L26.0414 41.1983C26.4281 40.8391 26.7198 40.3792 26.8748 39.8602ZM24 42C22.3431 42 21 40.6569 21 39V38.9853L24.0146 42L24 42ZM20 6V8H28V6H20Z" fill="black"/>
</svg>

<svg
  xmlns="http://www.w3.org/2000/svg"
  width="24"
  height="24"
  viewBox="0 0 24 24"
  fill="none"
  stroke="currentColor"
  stroke-width="2"
  stroke-linecap="round"
  stroke-linejoin="round"
>
  <path
    fill-rule="evenodd"
    d="M19 4a1 1 0 0 0-1 1v4a1 1 0 0 0 1 1h1v1.273a1.5 1.5 0 0 0-1 1.415V39a5 5 0 0 0 10 0V12.688a1.5 1.5 0 0 0-1-1.415V10h1a1 1 0 0 0 1-1V5a1 1 0 0 0-1-1zm2 9.102a1.5 1.5 0 0 0 1-1.415V10h4v1.688a1.5 1.5 0 0 0 1 1.414V18h-6zm6 11.883L22.015 20H21v1.157l6 6zM24.844 20 27 22.157v-1.172L26.015 20zM27 29.985l-6-6v2.172l6 6zm0 7.172-6-6v-2.172l6 6zm-.125 2.703L21 33.985v2.172l5.041 5.041c.387-.359.679-.819.834-1.338M24 42a3 3 0 0 1-3-3v-.015L24.015 42zM20 6v2h8V6z"
    clip-rule="evenodd"
  />
</svg>
